X:0155
T:Lary Grogan
M:6/8
L:1/8
Q:3/8=120
I: || ::
Z:Jack Campin * www.campin.me.uk * 2009
K:G
(d/c/)| BGB BGB|AFA ABc| BdB cAF|GGG G2||
 e    |=f3  edc|Bcd dBG|=f3  efg|ABA A2
 e    |=f3  edc|Bcd dBG| BdB cAF|GAG G2|]

